squashfs-root/usr/share/colord/illuminant/CIE-A.sp
SPECT  
DISPLAY	"CIE-A"
ORIGINATOR	"cd-it8"
CREATED	"Sun Jul 23 07:44:51 2017"
DESCRIPTOR	"Spectral Power"
SPECTRAL_START_NM	300.0
SPECTRAL_END_NM	830.0
SPECTRAL_BANDS	531
NUMBER_OF_FIELDS	531
NUMBER_OF_SETS	1
BEGIN_DATA_FORMAT
 SPEC_300000	SPEC_301000	SPEC_302000	SPEC_303000	SPEC_304000	SPEC_305000	SPEC_306000	SPEC_307000	SPEC_308000	SPEC_309000	SPEC_310000	SPEC_311000	SPEC_312000	SPEC_313000	SPEC_314000	SPEC_315000	SPEC_316000	SPEC_317000	SPEC_318000	SPEC_319000	SPEC_320000	SPEC_321000	SPEC_322000	SPEC_323000	SPEC_324000	SPEC_325000	SPEC_326000	SPEC_327000	SPEC_328000	SPEC_329000	SPEC_330000	SPEC_331000	SPEC_332000	SPEC_333000	SPEC_334000	SPEC_335000	SPEC_336000	SPEC_337000	SPEC_338000	SPEC_339000	SPEC_340000	SPEC_341000	SPEC_342000	SPEC_343000	SPEC_344000	SPEC_345000	SPEC_346000	SPEC_347000	SPEC_348000	SPEC_349000	SPEC_350000	SPEC_351000	SPEC_352000	SPEC_353000	SPEC_354000	SPEC_355000	SPEC_356000	SPEC_357000	SPEC_358000	SPEC_359000	SPEC_360000	SPEC_361000	SPEC_362000	SPEC_363000	SPEC_364000	SPEC_365000	SPEC_366000	SPEC_367000	SPEC_368000	SPEC_369000	SPEC_370000	SPEC_371000	SPEC_372000	SPEC_373000	SPEC_374000	SPEC_375000	SPEC_376000	SPEC_377000	SPEC_378000	SPEC_379000	SPEC_380000	SPEC_381000	SPEC_382000	SPEC_383000	SPEC_384000	SPEC_385000	SPEC_386000	SPEC_387000	SPEC_388000	SPEC_389000	SPEC_390000	SPEC_391000	SPEC_392000	SPEC_393000	SPEC_394000	SPEC_395000	SPEC_396000	SPEC_397000	SPEC_398000	SPEC_399000	SPEC_400000	SPEC_401000	SPEC_402000	SPEC_403000	SPEC_404000	SPEC_405000	SPEC_406000	SPEC_407000	SPEC_408000	SPEC_409000	SPEC_410000	SPEC_411000	SPEC_412000	SPEC_413000	SPEC_414000	SPEC_415000	SPEC_416000	SPEC_417000	SPEC_418000	SPEC_419000	SPEC_420000	SPEC_421000	SPEC_422000	SPEC_423000	SPEC_424000	SPEC_425000	SPEC_426000	SPEC_427000	SPEC_428000	SPEC_429000	SPEC_430000	SPEC_431000	SPEC_432000	SPEC_433000	SPEC_434000	SPEC_435000	SPEC_436000	SPEC_437000	SPEC_438000	SPEC_439000	SPEC_440000	SPEC_441000	SPEC_442000	SPEC_443000	SPEC_444000	SPEC_445000	SPEC_446000	SPEC_447000	SPEC_448000	SPEC_449000	SPEC_450000	SPEC_451000	SPEC_452000	SPEC_453000	SPEC_454000	SPEC_455000	SPEC_456000	SPEC_457000	SPEC_458000	SPEC_459000	SPEC_460000	SPEC_461000	SPEC_462000	SPEC_463000	SPEC_464000	SPEC_465000	SPEC_466000	SPEC_467000	SPEC_468000	SPEC_469000	SPEC_470000	SPEC_471000	SPEC_472000	SPEC_473000	SPEC_474000	SPEC_475000	SPEC_476000	SPEC_477000	SPEC_478000	SPEC_479000	SPEC_480000	SPEC_481000	SPEC_482000	SPEC_483000	SPEC_484000	SPEC_485000	SPEC_486000	SPEC_487000	SPEC_488000	SPEC_489000	SPEC_490000	SPEC_491000	SPEC_492000	SPEC_493000	SPEC_494000	SPEC_495000	SPEC_496000	SPEC_497000	SPEC_498000	SPEC_499000	SPEC_500000	SPEC_501000	SPEC_502000	SPEC_503000	SPEC_504000	SPEC_505000	SPEC_506000	SPEC_507000	SPEC_508000	SPEC_509000	SPEC_510000	SPEC_511000	SPEC_512000	SPEC_513000	SPEC_514000	SPEC_515000	SPEC_516000	SPEC_517000	SPEC_518000	SPEC_519000	SPEC_520000	SPEC_521000	SPEC_522000	SPEC_523000	SPEC_524000	SPEC_525000	SPEC_526000	SPEC_527000	SPEC_528000	SPEC_529000	SPEC_530000	SPEC_531000	SPEC_532000	SPEC_533000	SPEC_534000	SPEC_535000	SPEC_536000	SPEC_537000	SPEC_538000	SPEC_539000	SPEC_540000	SPEC_541000	SPEC_542000	SPEC_543000	SPEC_544000	SPEC_545000	SPEC_546000	SPEC_547000	SPEC_548000	SPEC_549000	SPEC_550000	SPEC_551000	SPEC_552000	SPEC_553000	SPEC_554000	SPEC_555000	SPEC_556000	SPEC_557000	SPEC_558000	SPEC_559000	SPEC_560000	SPEC_561000	SPEC_562000	SPEC_563000	SPEC_564000	SPEC_565000	SPEC_566000	SPEC_567000	SPEC_568000	SPEC_569000	SPEC_570000	SPEC_571000	SPEC_572000	SPEC_573000	SPEC_574000	SPEC_575000	SPEC_576000	SPEC_577000	SPEC_578000	SPEC_579000	SPEC_580000	SPEC_581000	SPEC_582000	SPEC_583000	SPEC_584000	SPEC_585000	SPEC_586000	SPEC_587000	SPEC_588000	SPEC_589000	SPEC_590000	SPEC_591000	SPEC_592000	SPEC_593000	SPEC_594000	SPEC_595000	SPEC_596000	SPEC_597000	SPEC_598000	SPEC_599000	SPEC_600000	SPEC_601000	SPEC_602000	SPEC_603000	SPEC_604000	SPEC_605000	SPEC_606000	SPEC_607000	SPEC_608000	SPEC_609000	SPEC_610000	SPEC_611000	SPEC_612000	SPEC_613000	SPEC_614000	SPEC_615000	SPEC_616000	SPEC_617000	SPEC_618000	SPEC_619000	SPEC_620000	SPEC_621000	SPEC_622000	SPEC_623000	SPEC_624000	SPEC_625000	SPEC_626000	SPEC_627000	SPEC_628000	SPEC_629000	SPEC_630000	SPEC_631000	SPEC_632000	SPEC_633000	SPEC_634000	SPEC_635000	SPEC_636000	SPEC_637000	SPEC_638000	SPEC_639000	SPEC_640000	SPEC_641000	SPEC_642000	SPEC_643000	SPEC_644000	SPEC_645000	SPEC_646000	SPEC_647000	SPEC_648000	SPEC_649000	SPEC_650000	SPEC_651000	SPEC_652000	SPEC_653000	SPEC_654000	SPEC_655000	SPEC_656000	SPEC_657000	SPEC_658000	SPEC_659000	SPEC_660000	SPEC_661000	SPEC_662000	SPEC_663000	SPEC_664000	SPEC_665000	SPEC_666000	SPEC_667000	SPEC_668000	SPEC_669000	SPEC_670000	SPEC_671000	SPEC_672000	SPEC_673000	SPEC_674000	SPEC_675000	SPEC_676000	SPEC_677000	SPEC_678000	SPEC_679000	SPEC_680000	SPEC_681000	SPEC_682000	SPEC_683000	SPEC_684000	SPEC_685000	SPEC_686000	SPEC_687000	SPEC_688000	SPEC_689000	SPEC_690000	SPEC_691000	SPEC_692000	SPEC_693000	SPEC_694000	SPEC_695000	SPEC_696000	SPEC_697000	SPEC_698000	SPEC_699000	SPEC_700000	SPEC_701000	SPEC_702000	SPEC_703000	SPEC_704000	SPEC_705000	SPEC_706000	SPEC_707000	SPEC_708000	SPEC_709000	SPEC_710000	SPEC_711000	SPEC_712000	SPEC_713000	SPEC_714000	SPEC_715000	SPEC_716000	SPEC_717000	SPEC_718000	SPEC_719000	SPEC_720000	SPEC_721000	SPEC_722000	SPEC_723000	SPEC_724000	SPEC_725000	SPEC_726000	SPEC_727000	SPEC_728000	SPEC_729000	SPEC_730000	SPEC_731000	SPEC_732000	SPEC_733000	SPEC_734000	SPEC_735000	SPEC_736000	SPEC_737000	SPEC_738000	SPEC_739000	SPEC_740000	SPEC_741000	SPEC_742000	SPEC_743000	SPEC_744000	SPEC_745000	SPEC_746000	SPEC_747000	SPEC_748000	SPEC_749000	SPEC_750000	SPEC_751000	SPEC_752000	SPEC_753000	SPEC_754000	SPEC_755000	SPEC_756000	SPEC_757000	SPEC_758000	SPEC_759000	SPEC_760000	SPEC_761000	SPEC_762000	SPEC_763000	SPEC_764000	SPEC_765000	SPEC_766000	SPEC_767000	SPEC_768000	SPEC_769000	SPEC_770000	SPEC_771000	SPEC_772000	SPEC_773000	SPEC_774000	SPEC_775000	SPEC_776000	SPEC_777000	SPEC_778000	SPEC_779000	SPEC_780000	SPEC_781000	SPEC_782000	SPEC_783000	SPEC_784000	SPEC_785000	SPEC_786000	SPEC_787000	SPEC_788000	SPEC_789000	SPEC_790000	SPEC_791000	SPEC_792000	SPEC_793000	SPEC_794000	SPEC_795000	SPEC_796000	SPEC_797000	SPEC_798000	SPEC_799000	SPEC_800000	SPEC_801000	SPEC_802000	SPEC_803000	SPEC_804000	SPEC_805000	SPEC_806000	SPEC_807000	SPEC_808000	SPEC_809000	SPEC_810000	SPEC_811000	SPEC_812000	SPEC_813000	SPEC_814000	SPEC_815000	SPEC_816000	SPEC_817000	SPEC_818000	SPEC_819000	SPEC_820000	SPEC_821000	SPEC_822000	SPEC_823000	SPEC_824000	SPEC_825000	SPEC_826000	SPEC_827000	SPEC_828000	SPEC_829000	SPEC_830000
END_DATA_FORMAT
BEGIN_DATA
 0.00930483	0.00967643	0.0100597	0.0104549	0.0108623	0.0112821	0.0117147	0.0121602	0.0126188	0.013091	0.0135769	0.0140768	0.014591	0.0151198	0.0156633	0.0162219	0.0167959	0.0173855	0.017991	0.0186127	0.0192508	0.0199057	0.0205776	0.0212667	0.0219734	0.022698	0.0234406	0.0242017	0.0249814	0.0257801	0.0265981	0.0274355	0.0282928	0.0291701	0.0300678	0.0309861	0.0319253	0.0328857	0.0338676	0.0348712	0.0358968	0.0369447	0.0380152	0.0391085	0.040225	0.0413648	0.0425282	0.0437156	0.0449272	0.0461631	0.0474238	0.0487095	0.0500204	0.0513568	0.0527189	0.054107	0.0555213	0.0569622	0.0584298	0.0599244	0.0614462	0.0629955	0.0645724	0.0661774	0.0678105	0.069472	0.0711621	0.0728811	0.0746292	0.0764066	0.0782135	0.0800501	0.0819167	0.0838134	0.0857404	0.087698	0.0896864	0.0917056	0.0937561	0.0958378	0.097951	0.100096	0.102273	0.104481	0.106722	0.108996	0.111302	0.11364	0.116012	0.118416	0.120853	0.123324	0.125828	0.128366	0.130938	0.133543	0.136182	0.138855	0.141563	0.144304	0.14708	0.149891	0.152736	0.155616	0.15853	0.16148	0.164464	0.167484	0.170538	0.173628	0.176753	0.179913	0.183108	0.186339	0.189605	0.192907	0.196244	0.199617	0.203026	0.20647	0.20995	0.213465	0.217016	0.220603	0.224225	0.227883	0.231577	0.235307	0.239072	0.242873	0.246709	0.250581	0.254489	0.258432	0.262411	0.266425	0.270475	0.27456	0.278681	0.282836	0.287027	0.291253	0.295515	0.299811	0.304142	0.308508	0.312909	0.317345	0.321815	0.32632	0.330859	0.335432	0.34004	0.344682	0.349358	0.354068	0.358811	0.363588	0.368399	0.373243	0.378121	0.383031	0.387975	0.392951	0.39796	0.403002	0.408076	0.413182	0.41832	0.423491	0.428693	0.433926	0.439192	0.444488	0.449816	0.455174	0.460563	0.465983	0.471433	0.476913	0.482423	0.487963	0.493533	0.499132	0.50476	0.510418	0.516104	0.521818	0.527561	0.533332	0.539132	0.544958	0.550813	0.556694	0.562603	0.568539	0.574501	0.580489	0.586504	0.592545	0.598611	0.604703	0.61082	0.616962	0.623128	0.62932	0.635535	0.641775	0.648038	0.654325	0.660635	0.666968	0.673324	0.679702	0.686102	0.692525	0.698969	0.705435	0.711922	0.71843	0.724959	0.731508	0.738077	0.744666	0.751275	0.757903	0.764551	0.771217	0.777902	0.784605	0.791326	0.798065	0.804821	0.811595	0.818386	0.825193	0.832017	0.838856	0.845712	0.852584	0.85947	0.866372	0.873288	0.880219	0.887165	0.894124	0.901097	0.908083	0.915082	0.922095	0.92912	0.936157	0.943206	0.950267	0.957339	0.964423	0.971518	0.978623	0.985739	0.992864	1.0	1.00715	1.0143	1.02146	1.02864	1.03582	1.04301	1.0502	1.05741	1.06462	1.07184	1.07906	1.0863	1.09354	1.10078	1.10803	1.11529	1.12255	1.12982	1.13709	1.14436	1.15164	1.15893	1.16622	1.17351	1.1808	1.1881	1.1954	1.2027	1.21001	1.21731	1.22462	1.23193	1.23924	1.24655	1.25386	1.26118	1.26849	1.2758	1.28312	1.29043	1.29774	1.30505	1.31236	1.31966	1.32697	1.33427	1.34157	1.34887	1.35617	1.36346	1.37075	1.37804	1.38532	1.3926	1.39988	1.40715	1.41441	1.42167	1.42893	1.43618	1.44343	1.45067	1.4579	1.46513	1.47235	1.47957	1.48678	1.49398	1.50117	1.50836	1.51554	1.52271	1.52988	1.53704	1.54418	1.55132	1.55845	1.56558	1.57269	1.57979	1.58689	1.59397	1.60104	1.60811	1.61516	1.62221	1.62924	1.63626	1.64327	1.65028	1.65726	1.66424	1.67121	1.67816	1.6851	1.69203	1.69895	1.70586	1.71275	1.71963	1.7265	1.73335	1.74019	1.74702	1.75383	1.76063	1.76741	1.77419	1.78094	1.78769	1.79441	1.80113	1.80783	1.81451	1.82118	1.82783	1.83447	1.84109	1.8477	1.85429	1.86087	1.86743	1.87397	1.8805	1.88701	1.8935	1.89998	1.90644	1.91288	1.91931	1.92572	1.93211	1.93849	1.94484	1.95118	1.9575	1.96381	1.97009	1.97636	1.98261	1.98884	1.99506	2.00125	2.00743	2.01359	2.01972	2.02584	2.03195	2.03803	2.04409	2.05013	2.05616	2.06216	2.06815	2.07411	2.08006	2.08599	2.09189	2.09778	2.10365	2.10949	2.11532	2.12112	2.12691	2.13268	2.13842	2.14415	2.14985	2.15553	2.1612	2.16684	2.17246	2.17806	2.18364	2.1892	2.19473	2.20025	2.20574	2.21122	2.21667	2.2221	2.22751	2.2329	2.23826	2.24361	2.24893	2.25423	2.25951	2.26477	2.27	2.27522	2.28041	2.28558	2.29073	2.29585	2.30096	2.30604	2.3111	2.31614	2.32115	2.32615	2.33112	2.33606	2.34099	2.34589	2.35078	2.35564	2.36047	2.36529	2.37008	2.37485	2.37959	2.38432	2.38902	2.3937	2.39836	2.40299	2.4076	2.41219	2.41675	2.4213	2.42582	2.43031	2.43479	2.43924	2.44367	2.44808	2.45246	2.45682	2.46116	2.46548	2.46977	2.47404	2.47829	2.48251	2.48671	2.49089	2.49505	2.49918	2.50329	2.50738	2.51144	2.51548	2.5195	2.5235	2.52747	2.53142	2.53535	2.53925	2.54314	2.547	2.55083	2.55465	2.55844	2.56221	2.56595	2.56968	2.57338	2.57706	2.58071	2.58434	2.58795	2.59154	2.59511	2.59865	2.60217	2.60567	2.60914	2.61259	2.61602
END_DATA
